packages/bezier-icons/icons/naver-talktalk.svg

<svg width="24" height="24" viewBox="0 0 24 24" fill="none" xmlns="http://www.w3.org/2000/svg">
<path fill-rule="evenodd" clip-rule="evenodd" d="M6.5 3H17.5C19.433 3 21 4.567 21 6.5V15.5C21 17.433 19.433 19 17.5 19H9.10593C8.40156 19 7.72988 19.2971 7.25607 19.8183L5.26192 22.0119C4.46263 22.8911 3 22.3257 3 21.1374V6.5C3 4.567 4.567 3 6.5 3ZM8.25 14.75V7.2565H10.8259L13.1844 10.9818L13.1917 7.25L15.75 7.2565V14.75H13.1557L10.8421 11.0309L10.8268 14.75H8.25Z" fill="#313234"/>
</svg>

<svg xmlns="http://www.w3.org/2000/svg" width="24" height="24" fill="none" viewBox="0 0 24 24"><path fill="#313234" fill-rule="evenodd" d="M6.5 3h11A3.5 3.5 0 0 1 21 6.5v9a3.5 3.5 0 0 1-3.5 3.5H9.106a2.5 2.5 0 0 0-1.85.818l-1.994 2.194c-.8.88-2.262.314-2.262-.875V6.5A3.5 3.5 0 0 1 6.5 3m1.75 11.75V7.257h2.576l2.358 3.725.008-3.732 2.558.006v7.494h-2.594l-2.314-3.72-.015 3.72z" clip-rule="evenodd"/></svg>
